X:515
T: Morrison's
S: "First Collection of Traditional Irish Music" (M.Mulvihill)
Z: B.Black
L: 1/8
M: C|
R: hornpipe
K: G
(3DEF|GFGA BAGF|Eeed e2 dc|Bdgd c3 A|\
GABG (3DED (3CB,A,|
B,GGA BAGF|Eeed e2 dc|Bdgd cAFA|G2 GF G2 :|
b/a/|(3gag fg e2 ba|(3gag fg e2 ag|(3fgf ef dfag|\
(3fgf ef dfba|
(3gag fg e2 ba|(3gag fg e3 f|eBef gfga|bafg e2 :|
